X:29
T: Megvirágzott a diófa
K: Bb
M: 4/4
L: 1/4
fed>d | e/d/ c f2 | 
fed>d | e/d/c c2 |
dfB>c| B/G/F c2 | 
df B>c | B/G/ F F2 | 

